X:61
T:Mr's Vernon's Hornpipe. ThoH.061
Q:1/2=90
M:3/2
L:1/8
B:Thompson's Compleat Collection of 120 Favourite Hornpipes.
Z:Village Music Project, Simon Wilson 2016
O:England.
K:D
D4(FD)(AF) (GE)(DC)|TD2FDTE2GETF2AF|{F}G4BGdB BAGF|FEBA GFED{D}C4|
D4(FD)(AF) (GE)(DC)|TD2FDTE2GETF2AF|{F}G4BGdB AFED|CB,BGF2TE2D4:|
|:A4dAfe fedc|dBfe dcBA{A}^G4|(a^g)(ag) (Tag)(Tag) (Tag)(fe)|(dc)(BA) (EA)(^GB){B}A4|
A,4(AF)(AF) (AG)(FE)|A,4(GE)(GE)F4|agfe dcBA GFED|CB, BGF2TE2D4:|

